!!!OTL: Gemengt.
!!!OTL-incipit:E BISSERLE LIEB' UND E BISSERLE TREU'
!!!COM: Volksweise
!!!ARE: Europa, Mitteleuropa, Deutschland
!!!SCT: F0130
!!!TXL: @@GSW
!!!YEM: Copyright 1995, estate of Helmut Schaffrath.
**kern	**text	**text
*ICvox	*	*
*Ivox	*	*
*clefG2	*	*
*M3/8	*	*
*k[b-]	*	*
*F:	*	*
!LO:TX:a:t=P:only the highest voice encoded:problem	!	!
{8c/	1._E	2._Die
=1	=1	=1
16f/L	biſ-	Würʒburger
16g/J	.	.
8a/	-ſer-	.
8b-/	-le	.
=2	=2	=2
8cc\	Lieb'	Glöck-
8cc\	un	-li
8cc\	e	ha'n
=3	=3	=3
8dd\	biſ-	ſchönes
8dd\	-ſer-	.
8dd\	-le	Ge-
=4	=4	=4
4cc\}	Treu',	-läut',
{16cc\	un	un
16cc\	e	je
=5	=5	=5
8b-/	biſ-	fer-
8b-/	-ſer-	-ner
8b-/	-le	die
=6	=6	=6
8a/	Falſchheit	Lieb-
8a/	.	-ſte,
8a/	is	je
=7	=7	=7
8g/	im-	grö-
8g/	-mer	-ßer
8g/	da-	die
=8	=8	=8
4f/}	1._bei.	2._Freud'.
{8cc\	J	.
=9	=9	=9
8g/	a-	.
8.cc/	-i	.
16b-/	i	.
=10	=10	=10
8a/	a-	.
8.ff/	-i!	.
16cc/	is	je
=11	=11	=11
8cc/	im-	grö-
8a/	-mer	-ßer
8g/	da-	die
=12	=12	=12
4f/}	-bei.	Freud'.
==	==	==
!!!AGN: Liebes - Lied, Spott
!!!ONB: ESAC (Essen Associative Code) Database: FINK
!!!AMT: simple triple
!!!AIN: vox
!!!EED: Helmut Schaffrath
!!!EEV: 1.0
!!!GTL:Volkslieder
!!Text: Volkslied
!!@@COMMENT:"NB. Text und Weise dieses Liedes finden sich sehr verschieden."
!!@@END:
!!!source: Musikalischer Hausschatz der Deutschen. Eine Sammlung von über 1000 Liedern und Gesängen mit Singstimmen und Klavierbegleitung. Leipzig, Litterarisches Verlags-Haus.
!!!page: 77
!!!URL-scan: https://www.digitale-sammlungen.de/en/view/bsb11144622?page=84,85
!!!ENC: Anna Maria Matuszewska
!!!EEV: 2024/07/25
*-	*-	*-